public/images/icons/budget.svg

<svg width="40" height="40" viewBox="0 0 40 40" fill="none" xmlns="http://www.w3.org/2000/svg">
    <g clip-path="url(#clip0_3118_207595)">
        <path d="M15.3125 13.25C14.9142 13.25 14.4922 13.25 14.0701 13.2967H13.9999C6.31256 14.0233 0 21.3204 0 29.453C0 38.8985 8.7735 39.9999 15.3125 39.9999C21.8048 39.9999 29.375 39.0157 30.4297 31.2578C31.5311 22.1639 24.3124 13.25 15.3125 13.25Z" fill="#FF637B"/>
        <path d="M30.4297 31.2578C29.375 39.0157 21.8048 39.9999 15.3125 39.9999V13.25C24.3124 13.25 31.5311 22.1639 30.4297 31.2578Z" fill="#E63950"/>
        <path d="M23.4441 3.89069L21.1004 11.0001H9.5226L7.17885 3.89069C7.03786 3.53912 7.10835 3.14056 7.31923 2.836C7.5536 2.53143 7.90517 2.34375 8.28023 2.34375H12.0067C12.4755 0.984192 13.788 0 15.3115 0C16.8349 0 18.124 0.984192 18.6162 2.34375H22.3427C22.7178 2.34375 23.0694 2.53143 23.3037 2.836C23.5146 3.14056 23.5851 3.53912 23.4441 3.89069Z" fill="#FF637B"/>
        <path d="M23.4451 3.89069L21.1014 11.0001H15.3125V0C16.8359 0 18.125 0.984192 18.6172 2.34375H22.3438C22.7188 2.34375 23.0704 2.53143 23.3047 2.836C23.5156 3.14056 23.5861 3.53912 23.4451 3.89069Z" fill="#E63950"/>
        <path d="M18.8047 29.8047C18.8047 31.3281 17.844 32.5937 16.4844 33.0859V34.1406C16.4844 34.7971 15.969 35.3125 15.3126 35.3125C14.6561 35.3125 14.1407 34.7971 14.1407 34.1406V33.1094C12.7811 32.6172 11.7734 31.3281 11.7734 29.8047C11.7734 29.1486 12.3124 28.6328 12.9453 28.6328C13.6017 28.6328 14.1172 29.1486 14.1172 29.8047C14.1172 30.4376 14.6561 30.9766 15.2891 30.9766H15.3126C15.969 30.9531 16.4609 30.4376 16.4609 29.8047C16.4609 29.1486 15.969 28.6563 15.3126 28.6328H15.2891C13.3674 28.6328 11.7734 27.0389 11.7734 25.1172C11.7734 23.5703 12.7814 22.2812 14.1407 21.8124V20.0781C14.1407 19.4217 14.6561 18.9062 15.3126 18.9062C15.969 18.9062 16.4844 19.4217 16.4844 20.0781V21.8124C17.844 22.3047 18.8047 23.5938 18.8047 25.1172C18.8047 25.7501 18.2892 26.2891 17.6328 26.2891C16.9999 26.2891 16.4609 25.7501 16.4609 25.1172C16.4609 24.4611 15.969 23.9688 15.3126 23.9453H15.2891C14.6561 23.9453 14.1172 24.4611 14.1172 25.1172C14.1172 25.7501 14.6561 26.2891 15.2891 26.2891H15.3126C17.2581 26.3126 18.8047 27.8595 18.8047 29.8047Z" fill="#FFDA2D"/>
        <path d="M40 23.5938C40 24.8828 38.9453 25.9375 37.6562 25.9375L31.7188 28.2812L25.8594 25.9375C24.5703 25.9375 23.5156 24.8828 23.5156 23.5938C23.5156 22.3047 24.5703 21.25 25.8594 21.25H37.6562C38.9453 21.25 40 22.3047 40 23.5938Z" fill="#FFDA2D"/>
        <path d="M40 23.5938C40 24.8828 38.9453 25.9375 37.6562 25.9375L31.7188 28.2812V21.25H37.6562C38.9453 21.25 40 22.3047 40 23.5938Z" fill="#FDBF00"/>
        <path d="M40 28.2812C40 29.5703 38.9453 30.625 37.6562 30.625L31.7188 32.9688L25.8594 30.625C24.5703 30.625 23.5156 29.5703 23.5156 28.2812C23.5156 26.9922 24.5703 25.9375 25.8594 25.9375H37.6562C38.9453 25.9375 40 26.9922 40 28.2812Z" fill="#FDBF00"/>
        <path d="M40 28.2812C40 29.5703 38.9453 30.625 37.6562 30.625L31.7188 32.9688V25.9375H37.6562C38.9453 25.9375 40 26.9922 40 28.2812Z" fill="#FF9100"/>
        <path d="M40 32.9688C40 34.2578 38.9453 35.3125 37.6562 35.3125L31.7188 37.6562L25.8594 35.3125C24.5703 35.3125 23.5156 34.2578 23.5156 32.9688C23.5156 31.6797 24.5703 30.625 25.8594 30.625H37.6562C38.9453 30.625 40 31.6797 40 32.9688Z" fill="#FFDA2D"/>
        <path d="M40 32.9688C40 34.2578 38.9453 35.3125 37.6562 35.3125L31.7188 37.6562V30.625H37.6562C38.9453 30.625 40 31.6797 40 32.9688Z" fill="#FDBF00"/>
        <path d="M40 37.6562C40 38.9453 38.9453 40 37.6562 40H25.8594C24.5703 40 23.5156 38.9453 23.5156 37.6562C23.5156 36.3672 24.5703 35.3125 25.8594 35.3125H37.6562C38.9453 35.3125 40 36.3672 40 37.6562Z" fill="#FDBF00"/>
        <path d="M40 37.6562C40 38.9453 38.9453 40 37.6562 40H31.7188V35.3125H37.6562C38.9453 35.3125 40 36.3672 40 37.6562Z" fill="#FF9100"/>
        <path d="M23.5156 11.7969C23.5156 13.0859 22.4609 14.1406 21.1719 14.1406H9.45312C8.16406 14.1406 7.10938 13.0859 7.10938 11.7969C7.10938 10.5078 8.16406 9.45312 9.45312 9.45312H21.1719C22.4609 9.45312 23.5156 10.5078 23.5156 11.7969Z" fill="#FFDA2D"/>
        <path d="M18.8046 29.8047C18.8046 31.3281 17.8439 32.5937 16.4844 33.0859V34.1406C16.4844 34.7971 15.9689 35.3125 15.3125 35.3125V30.9766C15.9689 30.9531 16.4609 30.4376 16.4609 29.8047C16.4609 29.1486 15.9689 28.6563 15.3125 28.6328V26.2891C17.258 26.3126 18.8046 27.8595 18.8046 29.8047Z" fill="#FDBF00"/>
        <path d="M18.8046 25.1172C18.8046 25.7501 18.2892 26.2891 17.6328 26.2891C16.9998 26.2891 16.4609 25.7501 16.4609 25.1172C16.4609 24.4611 15.9689 23.9688 15.3125 23.9453V18.9062C15.9689 18.9062 16.4844 19.4217 16.4844 20.0781V21.8124C17.8439 22.3047 18.8046 23.5938 18.8046 25.1172Z" fill="#FDBF00"/>
        <path d="M23.5156 11.7969C23.5156 13.0859 22.4609 14.1406 21.1719 14.1406H15.3125V9.45312H21.1719C22.4609 9.45312 23.5156 10.5078 23.5156 11.7969Z" fill="#FDBF00"/>
    </g>
    <defs>
        <clipPath id="clip0_3118_207595">
            <rect width="40" height="40" fill="white"/>
        </clipPath>
    </defs>
</svg>

<svg width="40" height="40" fill="none" xmlns="http://www.w3.org/2000/svg"><g clip-path="url(#a)"><path d="M15.313 13.25c-.399 0-.82 0-1.243.047H14c-7.687.726-14 8.023-14 16.156C0 38.898 8.774 40 15.313 40c6.492 0 14.062-.984 15.117-8.742 1.101-9.094-6.118-18.008-15.117-18.008Z" fill="#FF637B"/><path d="M30.43 31.258C29.375 39.016 21.805 40 15.313 40V13.25c9 0 16.218 8.914 15.117 18.008Z" fill="#E63950"/><path d="M23.444 3.89 21.1 11H9.523L7.179 3.89c-.141-.35-.07-.75.14-1.054.235-.305.586-.492.961-.492h3.727A3.505 3.505 0 0 1 15.312 0c1.523 0 2.812.984 3.304 2.344h3.727c.375 0 .726.187.96.492.212.305.282.703.141 1.055Z" fill="#FF637B"/><path d="M23.445 3.89 21.101 11h-5.788V0c1.523 0 2.812.984 3.304 2.344h3.727c.375 0 .726.187.96.492.212.305.282.703.141 1.055Z" fill="#E63950"/><path d="M18.805 29.805c0 1.523-.961 2.789-2.32 3.28v1.056a1.16 1.16 0 0 1-1.172 1.172 1.16 1.16 0 0 1-1.172-1.172v-1.032c-1.36-.492-2.368-1.78-2.368-3.304 0-.656.54-1.172 1.172-1.172a1.16 1.16 0 0 1 1.172 1.172 1.19 1.19 0 0 0 1.172 1.172h.024a1.17 1.17 0 0 0 1.148-1.172c0-.656-.492-1.149-1.148-1.172h-.024c-1.922 0-3.516-1.594-3.516-3.516a3.503 3.503 0 0 1 2.368-3.305v-1.734a1.16 1.16 0 0 1 1.172-1.172 1.16 1.16 0 0 1 1.171 1.172v1.734a3.507 3.507 0 0 1 2.32 3.305c0 .633-.515 1.172-1.171 1.172a1.19 1.19 0 0 1-1.172-1.172c0-.656-.492-1.148-1.148-1.172h-.024c-.633 0-1.172.516-1.172 1.172a1.19 1.19 0 0 0 1.172 1.172h.024a3.506 3.506 0 0 1 3.492 3.516ZM40 23.594a2.35 2.35 0 0 1-2.344 2.343l-5.937 2.344-5.86-2.343a2.35 2.35 0 0 1-2.343-2.344 2.35 2.35 0 0 1 2.343-2.344h11.797A2.35 2.35 0 0 1 40 23.594Z" fill="#FFDA2D"/><path d="M40 23.594a2.35 2.35 0 0 1-2.344 2.343l-5.937 2.344V21.25h5.937A2.35 2.35 0 0 1 40 23.594Z" fill="#FDBF00"/><path d="M40 28.281a2.35 2.35 0 0 1-2.344 2.344l-5.937 2.344-5.86-2.344a2.35 2.35 0 0 1-2.343-2.344 2.35 2.35 0 0 1 2.343-2.343h11.797A2.35 2.35 0 0 1 40 28.28Z" fill="#FDBF00"/><path d="M40 28.281a2.35 2.35 0 0 1-2.344 2.344l-5.937 2.344v-7.032h5.937A2.35 2.35 0 0 1 40 28.282Z" fill="#FF9100"/><path d="M40 32.969a2.35 2.35 0 0 1-2.344 2.343l-5.937 2.344-5.86-2.343a2.35 2.35 0 0 1-2.343-2.344 2.35 2.35 0 0 1 2.343-2.344h11.797A2.35 2.35 0 0 1 40 32.969Z" fill="#FFDA2D"/><path d="M40 32.969a2.35 2.35 0 0 1-2.344 2.343l-5.937 2.344v-7.031h5.937A2.35 2.35 0 0 1 40 32.969Z" fill="#FDBF00"/><path d="M40 37.656A2.35 2.35 0 0 1 37.656 40H25.86a2.35 2.35 0 0 1-2.343-2.344 2.35 2.35 0 0 1 2.343-2.343h11.797A2.35 2.35 0 0 1 40 37.656Z" fill="#FDBF00"/><path d="M40 37.656A2.35 2.35 0 0 1 37.656 40H31.72v-4.688h5.937A2.35 2.35 0 0 1 40 37.657Z" fill="#FF9100"/><path d="M23.516 11.797a2.35 2.35 0 0 1-2.344 2.344H9.453a2.35 2.35 0 0 1-2.344-2.344 2.35 2.35 0 0 1 2.344-2.344h11.719a2.35 2.35 0 0 1 2.344 2.344Z" fill="#FFDA2D"/><path d="M18.805 29.805c0 1.523-.961 2.789-2.32 3.28v1.056a1.16 1.16 0 0 1-1.172 1.172v-4.336a1.17 1.17 0 0 0 1.148-1.172c0-.656-.492-1.149-1.148-1.172v-2.344a3.506 3.506 0 0 1 3.492 3.516ZM18.805 25.117c0 .633-.516 1.172-1.172 1.172a1.19 1.19 0 0 1-1.172-1.172c0-.656-.492-1.148-1.148-1.172v-5.039a1.16 1.16 0 0 1 1.171 1.172v1.734a3.507 3.507 0 0 1 2.32 3.305ZM23.516 11.797a2.35 2.35 0 0 1-2.344 2.344h-5.86V9.453h5.86a2.35 2.35 0 0 1 2.344 2.344Z" fill="#FDBF00"/></g><defs><clipPath id="a"><path fill="#fff" d="M0 0h40v40H0z"/></clipPath></defs></svg>
